packages/xm_dkfz_net_site/Resources/Public/Icons/plus.svg

<svg width="100%" height="100%" viewBox="0 0 24 24" version="1.1" xmlns="http://www.w3.org/2000/svg" xmlns:xlink="http://www.w3.org/1999/xlink" xml:space="preserve" xmlns:serif="http://www.serif.com/" style="fill-rule:evenodd;clip-rule:evenodd;stroke-linejoin:round;stroke-miterlimit:2;">
    <path d="M10.5,10.5L10.5,1.5C10.5,0.672 11.172,0 12,0C12.828,0 13.5,0.672 13.5,1.5L13.5,10.5L22.5,10.5C23.328,10.5 24,11.172 24,12C24,12.828 23.328,13.5 22.5,13.5L13.5,13.5L13.5,22.5C13.5,23.328 12.828,24 12,24C11.172,24 10.5,23.328 10.5,22.5L10.5,13.5L1.5,13.5C0.672,13.5 0,12.828 0,12C0,11.172 0.672,10.5 1.5,10.5L10.5,10.5Z"/>
</svg>

<svg xmlns="http://www.w3.org/2000/svg" xml:space="preserve" style="fill-rule:evenodd;clip-rule:evenodd;stroke-linejoin:round;stroke-miterlimit:2" viewBox="0 0 24 24"><path d="M10.5 10.5v-9a1.5 1.5 0 0 1 3 0v9h9a1.5 1.5 0 0 1 0 3h-9v9a1.5 1.5 0 0 1-3 0v-9h-9a1.5 1.5 0 0 1 0-3h9Z"/></svg>
